X:1
T:Title
%%score { ( 1 4 ) | ( 2 3 ) }
L:1/8
Q:1/4=112
M:4/4
K:Ab
V:1 treble nm="Grand Piano"
V:4 treble 
V:2 bass 
V:3 bass 
V:1
 [Ec]4 [Fd]2 [Ec]2 | c3 B [CEA]4 | [A,DF]4 [DFA]2 [A,DF]2 | [A,DF]4 [A,CE]4 | %4
w: W.~H.~Doane * *||||
 [G,B,E]4 [B,EG]2 [A,=DF]2 | E6 z2 | B4 d2 c2 | z4 B4[K:bass] | [=EB]4 [Ec]2 [GB]2 | %9
w: |||||
 [GB]3 [FA] [FA]4 | [Ee]4 [Ed]2 [Ec]2 | [FB]2 [Fc]2 [Fd]2 [FB]2 | A4 B4 | [CEA]6 z2 |] %14
w: |||||
V:2
 [A,,A,]4 [A,,A,]2 [A,,A,]2 | [E,E]3- [E,DE] A,,4 | D,4 D,2 D,2 | A,,4 A,,4 | B,,4 B,,2 B,,2 | %5
 [E,G,]6 z2 | [E,G,E]4 [E,B,E]2 [E,A,E]2 | z4 [G,E]4 | [C,G,]4 [C,G,]2 [=E,C]2 | %9
 [F,C]3 [F,C] [F,C]4 | [C,A,]4 [B,,G,]2 [A,,A,]2 | [D,B,]2 [C,=A,]2 [B,,B,]2 [D,B,]2 | %12
 C2 z2 G,2 z2 | A,,6 z2 |] %14
V:3
 x8 | G,4 z4 | x8 | x8 | x8 | x8 | x8 | [E,A,E]3 [E,G,E] E,2 z2 | x8 | x8 | x8 | x8 | %12
 [E,E]4 [E,E]4 | x8 |] %14
V:4
 x8 | x8 | x8 | x8 | x8 | x8 | x8 | c3 B z2[K:bass] D,2 | x8 | x8 | x8 | x8 | z2 A,2 z2 D2 | x8 |] %14

